src/lib/packages/icons/src/assets/line/presentation-poll.svg

<svg xmlns="http://www.w3.org/2000/svg" width="24" height="24" fill="none"><path fill="currentColor" d="M21 2.25H3a.75.75 0 0 0 0 1.5h.75V13c0 2.418 1.332 3.75 3.75 3.75h3.75v1.849l-2.666 1.777a.75.75 0 1 0 .832 1.248L12 19.901l2.584 1.723a.748.748 0 0 0 1.041-.208.75.75 0 0 0-.208-1.04l-2.666-1.777V16.75h3.75c2.418 0 3.75-1.332 3.75-3.75V3.75H21a.75.75 0 0 0 0-1.5ZM18.75 13c0 1.577-.673 2.25-2.25 2.25h-9c-1.577 0-2.25-.673-2.25-2.25V3.75h13.5V13Zm-11-.5v-4a.75.75 0 0 1 1.5 0v4a.75.75 0 0 1-1.5 0Zm3.5 0v-6a.75.75 0 0 1 1.5 0v6a.75.75 0 0 1-1.5 0Zm3.5 0v-2a.75.75 0 0 1 1.5 0v2a.75.75 0 0 1-1.5 0Z"/></svg>

<svg width="24" height="24" viewBox="0 0 24 24" fill="none" xmlns="http://www.w3.org/2000/svg">
<path d="M21 2.25H3C2.586 2.25 2.25 2.586 2.25 3C2.25 3.414 2.586 3.75 3 3.75H3.75V13C3.75 15.418 5.082 16.75 7.5 16.75H11.25V18.599L8.58401 20.376C8.23902 20.606 8.14601 21.071 8.37601 21.416C8.60501 21.761 9.07099 21.854 9.41599 21.624L12 19.901L14.584 21.624C14.712 21.709 14.856 21.75 15 21.75C15.242 21.75 15.48 21.633 15.625 21.416C15.855 21.071 15.762 20.606 15.417 20.376L12.751 18.599V16.75H16.501C18.919 16.75 20.251 15.418 20.251 13V3.75H21C21.414 3.75 21.75 3.414 21.75 3C21.75 2.586 21.414 2.25 21 2.25ZM18.75 13C18.75 14.577 18.077 15.25 16.5 15.25H7.5C5.923 15.25 5.25 14.577 5.25 13V3.75H18.75V13ZM7.75 12.5V8.5C7.75 8.086 8.086 7.75 8.5 7.75C8.914 7.75 9.25 8.086 9.25 8.5V12.5C9.25 12.914 8.914 13.25 8.5 13.25C8.086 13.25 7.75 12.914 7.75 12.5ZM11.25 12.5V6.5C11.25 6.086 11.586 5.75 12 5.75C12.414 5.75 12.75 6.086 12.75 6.5V12.5C12.75 12.914 12.414 13.25 12 13.25C11.586 13.25 11.25 12.914 11.25 12.5ZM14.75 12.5V10.5C14.75 10.086 15.086 9.75 15.5 9.75C15.914 9.75 16.25 10.086 16.25 10.5V12.5C16.25 12.914 15.914 13.25 15.5 13.25C15.086 13.25 14.75 12.914 14.75 12.5Z" fill="currentColor"/>
</svg>
